!!!SOCIAL_FUNCTION:	songs connected with rare medicines
!!!PDT:	1909
!!!OTL: No_83_Song_of_a_Scalp_Dance.krn
!!!REG: Great_Lakes
!!!LANG: Non-Tone
!!!LING_GROUP: Algonquin
**kern	**kern
*staff2	*staff1
*clefF4	*clefF4
*k[b-e-a-]	*k[b-e-a-]
*M2/4	*M2/4
4r	8c\L
.	8c\J
=1	=1
8GG/L	2c\
8GG/J	.
8GG/L	.
8GG/J	.
=2	=2
8GG/L	16c\LK
.	8.B-\J
8GG/J	.
8GG/L	8.B-\L
8GG/J	.
.	16G\Jk
=3||	=3||
*M3/4	*M3/4
2.r	4G\
.	4G\
.	8B-\L
.	8B-\J
=4!|:	=4!|:
*M2/4	*M2/4
2r	2G\
=5	=5
2r	8F\L
.	8F\J
.	8.F\L
.	16E-\Jk
=6||	=6||
*M3/4	*M3/4
2.r	4E-\
.	4C/
.	8E-\L
.	8E-\J
=7||	=7||
*M2/4	*M2/4
2r	2C/
=8	=8
2r	8BB-/L
.	8BB-/J
.	8.BB-/L
.	16BB-/Jk
=9||	=9||
*M3/4	*M3/4
2.r	4BB-/
.	4BB-/
.	8C/L
.	8C/J
=10||	=10||
*M2/4	*M2/4
2r	2BB-/
=11	=11
2r	8GG/L
.	8GG/J
.	8.GG/L
.	16GG/Jk
=12	=12
2r	4GG/
.	4GG/
=13	=13
2r	4r
.	8c\L
.	8c\J
=14	=14
2r	4.B-\
.	8B-\
=15	=15
2r	4B-\
.	4B-\
=16	=16
2r	8c\L
.	8c\J
.	8.B-\L
.	16G\Jk
=17	=17
2r	[2G\
=18	=18
2r	4G\]
.	8G\L
.	8G\J
=19	=19
2r	8.B-\L
.	16G\Jk
.	4G\
=20	=20
2r	[2G\
=21	=21
2r	4G\]
.	8B-\L
.	8B-\J
==:|!	==:|!
*-	*-
